Origami/16x16/apps/freeplane.svg

<svg width="16" height="16" version="1" xmlns="http://www.w3.org/2000/svg">
 <path d="m8 1.0000002c-3.878 0-7 3.122-7 7 0 3.8779998 3.122 6.9999998 7 6.9999998s7-3.122 7-6.9999998c0-3.878-3.122-7-7-7z" style="fill:#fead38"/>
 <path d="m8.1086914 1.0027346a10.50152 10.507981 0 0 0 -6.7388672 9.2374024c0.4080617 1.214975 1.1366077 2.277945 2.0897462 3.089844a10.50152 10.507981 0 0 1 -0.0095704 -0.420411 10.50152 10.507981 0 0 1 8.920898 -10.379687c-1.170223-0.9349247-2.6471851-1.5026735-4.2622066-1.5271484z" style="fill:#3f3f3f"/>
 <path d="m13.159765 3.272266a10.50152 10.507981 0 0 0 -8.659765 10.335938 10.50152 10.507981 0 0 0 0.023925 0.468261c0.6485129 0.37058 1.3596845 0.644289 2.1184572 0.792285a10.50152 10.507981 0 0 1 7.9030288 -9.3406248c-0.316785-0.8426705-0.789517-1.6052379-1.385646-2.2558592z" style="fill:#3f3f3f"/>
 <g transform="matrix(.91796878 0 0 .91796878 1.4374999 .35546869)">
  <circle cx="9.872" cy="8.872" r="2.723" style="fill:#ffffff"/>
  <circle cx="9.191" cy="9.553" r="1.362" style="fill:#3f3f3f"/>
 </g>
 <g transform="matrix(.97916667 0 0 .97916667 .33333305 .31249996)">
  <circle cx="13.957" cy="6.83" r="2.043" style="fill:#ffffff"/>
  <circle cx="13.617" cy="7.17" r="1.021" style="fill:#3f3f3f"/>
 </g>
 <path d="M 12,13.333333 C 12,13.333333 11.104569,14 9.9999998,14 8.8954306,14 8,12.736379 8,12 8,12 9.0600633,12.772435 9.6666665,13 10.813565,13.430254 12,13.333333 12,13.333333 Z" style="fill:#3f3f3f"/>
 <path d="m3.9520708 10.365712c1.5400248-0.7357622 2.8996127-0.326399 3.0367256 0.914339 0.1371128 1.240737-1.0001715 2.843006-2.5401963 3.578767-1.5400243 0.73576-4.3061648-1.583376-4.4432775-2.824113-0.13711269-1.240738 2.4067241-0.933232 3.9467482-1.668993z" style="fill:#cccccc"/>
</svg>

<svg xmlns="http://www.w3.org/2000/svg" width="16" height="16" version="1">
 <path style="fill:#fead38" d="m 8,1.0000002 c -3.878,0 -7,3.122 -7,7 C 1,11.878 4.122,15 8,15 c 3.878,0 7,-3.122 7,-6.9999998 0,-3.878 -3.122,-7 -7,-7 z"/>
 <path style="fill:#3f3f3f" d="M 8.1086914,1.0027346 A 10.50152,10.507981 0 0 0 1.3698242,10.240137 c 0.4080617,1.214975 1.1366077,2.277945 2.0897462,3.089844 A 10.50152,10.507981 0 0 1 3.45,12.90957 10.50152,10.507981 0 0 1 12.370898,2.529883 C 11.200675,1.5949583 9.7237129,1.0272095 8.1086914,1.0027346 Z"/>
 <path style="fill:#3f3f3f" d="M 13.159765,3.272266 A 10.50152,10.507981 0 0 0 4.5,13.608204 a 10.50152,10.507981 0 0 0 0.023925,0.468261 c 0.6485129,0.37058 1.3596845,0.644289 2.1184572,0.792285 A 10.50152,10.507981 0 0 1 14.545411,5.5281252 C 14.228626,4.6854547 13.755894,3.9228873 13.159765,3.272266 Z"/>
 <g transform="matrix(0.91796878,0,0,0.91796878,1.4374999,0.35546869)">
  <circle style="fill:#ffffff" cx="9.872" cy="8.872" r="2.723"/>
  <circle style="fill:#3f3f3f" cx="9.191" cy="9.553" r="1.362"/>
 </g>
 <g transform="matrix(0.97916667,0,0,0.97916667,0.33333305,0.31249996)">
  <circle style="fill:#ffffff" cx="13.957" cy="6.83" r="2.043"/>
  <circle style="fill:#3f3f3f" cx="13.617" cy="7.17" r="1.021"/>
 </g>
 <path style="fill:#3f3f3f" d="M 12,13.333333 C 12,13.333333 11.104569,14 9.9999998,14 8.8954306,14 8,12.736379 8,12 8,12 9.0600633,12.772435 9.6666665,13 10.813565,13.430254 12,13.333333 12,13.333333 Z"/>
 <path style="fill:#cccccc" d="M 3.9520708,10.365712 C 5.4920956,9.6299498 6.8516835,10.039313 6.9887964,11.280051 7.1259092,12.520788 5.9886249,14.123057 4.4486001,14.858818 2.9085758,15.594578 0.1424353,13.275442 0.0053226,12.034705 -0.13179009,10.793967 2.4120467,11.101473 3.9520708,10.365712 Z"/>
</svg>
